public/images/icons/email-fast-outline.svg

<svg xmlns="http://www.w3.org/2000/svg" fill="currentColor" viewBox="0 0 24 24"><path d="M22 5.5H9c-1.1 0-2 .9-2 2v9a2 2 0 0 0 2 2h13c1.11 0 2-.89 2-2v-9a2 2 0 0 0-2-2m0 11H9V9.17l6.5 3.33L22 9.17v7.33m-6.5-5.69L9 7.5h13l-6.5 3.31M5 16.5c0 .17.03.33.05.5H1c-.552 0-1-.45-1-1s.448-1 1-1h4v1.5M3 7h2.05c-.02.17-.05.33-.05.5V9H3c-.55 0-1-.45-1-1s.45-1 1-1m-2 5c0-.55.45-1 1-1h3v2H2c-.55 0-1-.45-1-1Z"/></svg>

<svg xmlns="http://www.w3.org/2000/svg" viewBox="0 0 24 24" fill="currentColor"><path d="M22 5.5H9C7.9 5.5 7 6.4 7 7.5V16.5C7 17.61 7.9 18.5 9 18.5H22C23.11 18.5 24 17.61 24 16.5V7.5C24 6.4 23.11 5.5 22 5.5M22 16.5H9V9.17L15.5 12.5L22 9.17V16.5M15.5 10.81L9 7.5H22L15.5 10.81M5 16.5C5 16.67 5.03 16.83 5.05 17H1C.448 17 0 16.55 0 16S.448 15 1 15H5V16.5M3 7H5.05C5.03 7.17 5 7.33 5 7.5V9H3C2.45 9 2 8.55 2 8S2.45 7 3 7M1 12C1 11.45 1.45 11 2 11H5V13H2C1.45 13 1 12.55 1 12Z" /></svg>
